X: 3730
T: Bingo's
R: reel
M: 4/4
K: Dmajor
fdBd A2 dA|BAFD EFGB|A ~F3 dFBF|Ad (3fga g2 fe|
d2ce dBAG|FEFA GFEG|FAdf ecdB|Aceg fdde:|
fa^gb afdf|gBed cAAG|FAdf gaba|agfg e2fg|
~a3b afdf|gBed cAAG|FAdf ecdB|Aceg fdde|
fa^gb afdf|gBed cAAG|FAdf gaba|agfg e2fg|
~a3b afdf|gBed cAAG|FAdf ecdB|ABcd egfe||

